src/lib/packages/icons/src/assets/filled/envelope-shield.svg

<svg width="24" height="24" viewBox="0 0 24 24" fill="none" xmlns="http://www.w3.org/2000/svg">
<path d="M19.01 12.5C19.205 12.5 19.4059 12.543 19.5969 12.623C19.6999 12.67 20 12.63 20 12.351V7C20 5 19 4 17 4H5C3 4 2 5 2 7V16C2 18 3 19 5 19H14.429C14.635 19 14.7699 18.8 14.7109 18.603C14.5719 18.141 14.501 17.644 14.501 17.11V15.17C14.501 14.5 14.9411 13.91 15.5811 13.73C17.0411 13.3 17.681 12.99 18.321 12.67C18.54 12.56 18.77 12.5 19.01 12.5ZM16.9409 8.606L12.0291 12.178C11.7211 12.402 11.36 12.514 11 12.514C10.64 12.514 10.2779 12.402 9.97095 12.179L5.05908 8.606C4.72408 8.363 4.65004 7.893 4.89404 7.558C5.13704 7.225 5.60489 7.14801 5.94189 7.39301L10.854 10.965C10.942 11.028 11.059 11.029 11.147 10.965L16.0591 7.39301C16.3961 7.14801 16.8639 7.224 17.1069 7.558C17.3509 7.894 17.2759 8.363 16.9409 8.606ZM22 15.116C22 15.534 22 16.682 22 17.111C22 19.444 20.125 20.611 19 21C17.875 20.611 16 19.444 16 17.111C16 16.696 16 15.564 16 15.167C17.5 14.727 18.2501 14.389 19.0061 14C19.7501 14.389 20.5 14.727 22 15.116Z" fill="currentColor"/>
</svg>

<svg xmlns="http://www.w3.org/2000/svg" width="24" height="24" fill="none"><path fill="currentColor" d="M19.01 12.5c.195 0 .396.043.587.123.103.047.403.007.403-.272V7c0-2-1-3-3-3H5C3 4 2 5 2 7v9c0 2 1 3 3 3h9.429c.206 0 .34-.2.282-.397a5.155 5.155 0 0 1-.21-1.493v-1.94c0-.67.44-1.26 1.08-1.44 1.46-.43 2.1-.74 2.74-1.06.219-.11.449-.17.689-.17Zm-2.07-3.894-4.91 3.572a1.748 1.748 0 0 1-2.059.001L5.059 8.606a.75.75 0 1 1 .883-1.213l4.912 3.572a.25.25 0 0 0 .293 0l4.912-3.572a.75.75 0 1 1 .882 1.213Zm5.06 6.51v1.995c0 2.333-1.875 3.5-3 3.889-1.125-.389-3-1.556-3-3.889v-1.944c1.5-.44 2.25-.778 3.006-1.167.744.389 1.494.727 2.994 1.116Z"/></svg>
